code-brackets.svg

<svg fill="currentColor" viewBox="0 0 24 24"><path d="M15 4v2h3v12h-3v2h5V4M4 4v16h5v-2H6V6h3V4z"/></svg>

<svg  viewBox="0 0 24 24" fill="currentColor"><path  d="M15,4V6H18V18H15V20H20V4M4,4V20H9V18H6V6H9V4H4Z"/></svg>
